X:1
T:Ein grosse Frewd verkündig ich
T:Georg Vogler
T:Source : Catechismus---Würzburg---J.Volmari---1652. Editor : André Vierendeels (26/09/17).
T:Notes : Original clefs : C1, F4 Original note values have been quartered Text Middle German 
T:Ein grosse Frewd verkündig ich
T:©
T:©
C:Georg Vogler
Z:©
%%score [ 1 2 ]
L:1/8
Q:1/4=120
M:3/4
K:C
V:1 treble nm="Soprano" snm="S"
V:2 bass nm="Bass" snm="B"
V:1
 z2 z2 D2 | F4 G2 | A4 c2 | A4 G2 | F4 A2 | c4 A2 | F4 G2 | F2 E4 | D4 E2 | F4 D2 | ^F4 D2 | %11
w: Ein|gros- se|Frewd ver-|kün- dig|euch, und|all'n Völ-|kern auff|Er- den-|reich, O|Christ, wach|auff, steh'|
w: Auff,|auff, kei-|ner sich|sau- men|soll, dann|Him'l und|Erd' seyn|Frew- den-|voll, *|||
 F4 E2 | D4 G2 | G4 A2 | F4 D2 | E3 D E2 | ^F6 |] %17
w: auff und|lauff, zum|Kindl, zum|Krippl, zum|Müt- ter- lein,|lauff!|
w: ||||||
V:2
 z2 z2 D,2 | D,4 C,2 | F,4 F,2 | F,4 C,2 | F,,4 F,2 | C,4 D,2 | F,4 C,2 | A,,4 A,,2 | D,4 A,,2 | %9
w: Ein|gros- se|Frewd ver-|kün- dig|euch, und|all'n Völ-|kern auff|Er- den|reich, O|
w: Laufft|mit den|Hir- ten,|saumbt euch|nicht, der|Welt Hey-|land wird|heut ge-|schickt, *|
 D,4 _B,,2 | D,4 G,,2 | D,4 A,,2 | D,4 B,,2 | C,4 A,,2 | _B,,4 D,2 | A,,3 _B,, A,,2 | D,6 |] %17
w: Christ, wach|auff, steh'|auff und|lauff, zum|Kindl, zum|Krippl, zum|Müt- ter- lein,|lauff!|
w: ||||||||

